img/ig.svg

<svg fill="none" height="32" viewBox="0 0 32 32" width="32" xmlns="http://www.w3.org/2000/svg"><g fill="#000"><path clip-rule="evenodd" d="m3.8999 11.9999c0-4.4735 3.6265-8.1 8.1-8.1h8c4.4735 0 8.1 3.6265 8.1 8.1v8c0 4.4735-3.6265 8.1-8.1 8.1h-8c-4.4735 0-8.1-3.6265-8.1-8.1zm8.1-5.9c-3.25848 0-5.9 2.64152-5.9 5.9v8c0 3.2585 2.64152 5.9 5.9 5.9h8c3.2585 0 5.9-2.6415 5.9-5.9v-8c0-3.25848-2.6415-5.9-5.9-5.9z" fill-rule="evenodd"/><path clip-rule="evenodd" d="m16 12c-2.2091 0-4 1.7909-4 4s1.7909 4 4 4 4-1.7909 4-4-1.7909-4-4-4zm-6 4c0-3.3137 2.6863-6 6-6s6 2.6863 6 6-2.6863 6-6 6-6-2.6863-6-6z" fill-rule="evenodd"/><path d="m23.5 9.5c0 .5523-.4477 1-1 1s-1-.4477-1-1c0-.55228.4477-1 1-1s1 .44772 1 1z"/></g></svg>

<svg width="32" height="32" viewBox="0 0 32 32" fill="none" xmlns="http://www.w3.org/2000/svg">
<path fill-rule="evenodd" clip-rule="evenodd" d="M3.8999 11.9999C3.8999 7.5264 7.5264 3.8999 11.9999 3.8999H19.9999C24.4734 3.8999 28.0999 7.5264 28.0999 11.9999V19.9999C28.0999 24.4734 24.4734 28.0999 19.9999 28.0999H11.9999C7.5264 28.0999 3.8999 24.4734 3.8999 19.9999V11.9999ZM11.9999 6.0999C8.74142 6.0999 6.0999 8.74142 6.0999 11.9999V19.9999C6.0999 23.2584 8.74142 25.8999 11.9999 25.8999H19.9999C23.2584 25.8999 25.8999 23.2584 25.8999 19.9999V11.9999C25.8999 8.74142 23.2584 6.0999 19.9999 6.0999H11.9999Z" fill="black"/>
<path fill-rule="evenodd" clip-rule="evenodd" d="M16 12C13.7909 12 12 13.7909 12 16C12 18.2091 13.7909 20 16 20C18.2091 20 20 18.2091 20 16C20 13.7909 18.2091 12 16 12ZM10 16C10 12.6863 12.6863 10 16 10C19.3137 10 22 12.6863 22 16C22 19.3137 19.3137 22 16 22C12.6863 22 10 19.3137 10 16Z" fill="black"/>
<path d="M23.5 9.5C23.5 10.0523 23.0523 10.5 22.5 10.5C21.9477 10.5 21.5 10.0523 21.5 9.5C21.5 8.94772 21.9477 8.5 22.5 8.5C23.0523 8.5 23.5 8.94772 23.5 9.5Z" fill="black"/>
</svg>
